!!!OTL: Alter Hochzeitstanz
!!!ARE: Europa, Mitteleuropa, Deutschland
!!!SCT: A0310C
!!!YEM: Copyright 1995, estate of Helmut Schaffrath.
**kern
*ICvox
*Ivox
*M3/2
*k[f#]
*G:
{2g
=1
2a
4a
4a
4a
4a
=2
2b
2b}
{2a
=3
8g
8f#
8g
8a
4b
4b
4a
4g
=4
2f#
2r}
{2g
=5
2.a
4a
4a
4a
=6
2b
2b}
{2a
=7
4g
4a
2g
2f#
=8
2g
4r}
{4b
4b
4a
=9
2b
4r
4b
4b
4a
=10
2b
4r}
{4b
4a
4a
=11
8g
8f#
8g
8b
4a
4g
4g
4f#
=12
1g}
==
!!!AGN: Romanze, Ballade, Lied
!! Souterliedekens 1540 ad Ps. 150
!!!ONB: ESAC (Essen Associative Code) Database: ALTDEU
!!!AMT: simple triple
!!!AIN: vox
!!!EED: Helmut Schaffrath
!!!EEV: 1.0
*-
